X:1
T:Yambu
M:C|
L:1/8
C:© Paul Gitlitz 2001
R:Reel
B:Hunters and Gatherers
N:Written while bouncing  into Graceland (on a rebounder) to an African
N:rhythm of the same name
D:On my CD "To Have and To Hold" available @ www.glitchless.net
K:A
"A"[A3c3][Ac] [Ac]BAB|"C#m"cAeA cAzz|"E7"GB2e efed|"F#m"cdef "E"ecAB|!
"A"[A3c3][Ac] [Ac]BAB|"C#m"cAeA cABA|"E7"GB2e "F#m"efed |"E7"cABc "A"A2AB:|!
:"D"[d3f3]f- "Bm"fed2|"A"e3e- "C#m"edc2"E"[G3B3]B- "E7"BdcB|"A"cd2e-"A7"ef2=g|!
"D"[d3f3]f- fagf|"A"ec3A- AABA|"E7"GB2e- efed|1cABc "A"Acde:|2cABc "A"A2z4|]

% Written by ABC2Win  2.2.109 on 1/13/2006
